src/commonTest/resources/com/ashampoo/xmp/sample_8_formatted_compact.xmp
<?xpacket begin="﻿" id="W5M0MpCehiHzreSzNTczkc9d"?>
<x:xmpmeta xmlns:x="adobe:ns:meta/" x:xmptk="Ashampoo XMP Core 1.6.1">
  <rdf:RDF xmlns:rdf="http://www.w3.org/1999/02/22-rdf-syntax-ns#">
    <rdf:Description rdf:about=""
        xmlns:aux="http://ns.adobe.com/exif/1.0/aux/"
        xmlns:crs="http://ns.adobe.com/camera-raw-settings/1.0/"
        xmlns:dc="http://purl.org/dc/elements/1.1/"
        xmlns:photoshop="http://ns.adobe.com/photoshop/1.0/"
        xmlns:xmp="http://ns.adobe.com/xap/1.0/"
        xmlns:xmpMM="http://ns.adobe.com/xap/1.0/mm/"
        xmlns:stRef="http://ns.adobe.com/xap/1.0/sType/ResourceRef#"
        xmlns:stEvt="http://ns.adobe.com/xap/1.0/sType/ResourceEvent#"
      aux:ApproximateFocusDistance="72/100"
      aux:Firmware="1.1.4"
      aux:FlashCompensation="0/1"
      aux:ImageNumber="0"
      aux:Lens="35mm"
      aux:LensID="169"
      aux:LensInfo="35/1 35/1 0/0 0/0"
      aux:LensSerialNumber="0000000000"
      aux:SerialNumber="252020002303"
      crs:AlreadyApplied="True"
      crs:AutoLateralCA="0"
      crs:AutoWhiteVersion="134348800"
      crs:Blacks2012="+25"
      crs:BlueHue="0"
      crs:BlueSaturation="0"
      crs:CameraProfile="Embedded"
      crs:Clarity2012="+11"
      crs:ColorNoiseReduction="25"
      crs:ColorNoiseReductionDetail="50"
      crs:ColorNoiseReductionSmoothness="50"
      crs:Contrast2012="+6"
      crs:ConvertToGrayscale="False"
      crs:DefringeGreenAmount="0"
      crs:DefringeGreenHueHi="60"
      crs:DefringeGreenHueLo="40"
      crs:DefringePurpleAmount="0"
      crs:DefringePurpleHueHi="70"
      crs:DefringePurpleHueLo="30"
      crs:Exposure2012="+0.25"
      crs:GrainAmount="16"
      crs:GrainFrequency="45"
      crs:GrainSeed="3872006559"
      crs:GrainSize="40"
      crs:GreenHue="0"
      crs:GreenSaturation="0"
      crs:HasCrop="False"
      crs:HasSettings="True"
      crs:Highlights2012="-20"
      crs:HueAdjustmentAqua="+28"
      crs:HueAdjustmentBlue="-15"
      crs:HueAdjustmentGreen="+8"
      crs:HueAdjustmentMagenta="+15"
      crs:HueAdjustmentOrange="-8"
      crs:HueAdjustmentPurple="-3"
      crs:HueAdjustmentRed="-6"
      crs:HueAdjustmentYellow="-5"
      crs:IncrementalTemperature="+2"
      crs:IncrementalTint="-7"
      crs:LensManualDistortionAmount="0"
      crs:LensProfileEnable="0"
      crs:LensProfileSetup="LensDefaults"
      crs:LuminanceAdjustmentAqua="+4"
      crs:LuminanceAdjustmentBlue="-31"
      crs:LuminanceAdjustmentGreen="-15"
      crs:LuminanceAdjustmentMagenta="+30"
      crs:LuminanceAdjustmentOrange="-6"
      crs:LuminanceAdjustmentPurple="+30"
      crs:LuminanceAdjustmentRed="+5"
      crs:LuminanceAdjustmentYellow="0"
      crs:LuminanceSmoothing="0"
      crs:ParametricDarks="0"
      crs:ParametricHighlightSplit="75"
      crs:ParametricHighlights="0"
      crs:ParametricLights="0"
      crs:ParametricMidtoneSplit="50"
      crs:ParametricShadowSplit="25"
      crs:ParametricShadows="0"
      crs:PerspectiveAspect="0"
      crs:PerspectiveHorizontal="0"
      crs:PerspectiveRotate="0.0"
      crs:PerspectiveScale="100"
      crs:PerspectiveUpright="0"
      crs:PerspectiveVertical="0"
      crs:PostCropVignetteAmount="0"
      crs:ProcessVersion="6.7"
      crs:RedHue="0"
      crs:RedSaturation="0"
      crs:Saturation="-4"
      crs:SaturationAdjustmentAqua="-33"
      crs:SaturationAdjustmentBlue="-30"
      crs:SaturationAdjustmentGreen="-50"
      crs:SaturationAdjustmentMagenta="-5"
      crs:SaturationAdjustmentOrange="-7"
      crs:SaturationAdjustmentPurple="-25"
      crs:SaturationAdjustmentRed="-2"
      crs:SaturationAdjustmentYellow="-20"
      crs:ShadowTint="0"
      crs:Shadows2012="+20"
      crs:SharpenDetail="25"
      crs:SharpenEdgeMasking="0"
      crs:SharpenRadius="+1.0"
      crs:Sharpness="51"
      crs:SplitToningBalance="+98"
      crs:SplitToningHighlightHue="79"
      crs:SplitToningHighlightSaturation="5"
      crs:SplitToningShadowHue="74"
      crs:SplitToningShadowSaturation="4"
      crs:ToneCurveName="Linear"
      crs:ToneCurveName2012="Custom"
      crs:Version="8.7.1"
      crs:Vibrance="-2"
      crs:VignetteAmount="0"
      crs:WhiteBalance="Custom"
      crs:Whites2012="-14"
      dc:format="image/jpeg"
      photoshop:DateCreated="2019-02-16T06:37:31.93"
      xmp:CreateDate="2019-02-16T06:37:31.93"
      xmp:CreatorTool="Adobe Photoshop Lightroom 5.7.1 (Macintosh)"
      xmp:MetadataDate="2019-02-16T19:26-05:00"
      xmp:ModifyDate="2019-02-16T19:26:00-05:00"
      xmp:Rating="3"
      xmpMM:DocumentID="xmp.did:04e69b56-089f-4b0b-a69d-08111a57f914"
      xmpMM:InstanceID="xmp.iid:04e69b56-089f-4b0b-a69d-08111a57f914"
      xmpMM:OriginalDocumentID="7AE2C6EAF539AF535316F1B6DBCC874C">
      <crs:GradientBasedCorrections>
        <rdf:Seq>
          <rdf:li>
            <rdf:Description
              crs:CorrectionActive="true"
              crs:CorrectionAmount="1.000000"
              crs:LocalBrightness="0.000000"
              crs:LocalClarity2012="0.000000"
              crs:LocalContrast2012="0.000000"
              crs:LocalDefringe="0.000000"
              crs:LocalExposure2012="0.224449"
              crs:LocalHighlights2012="0.000000"
              crs:LocalLuminanceNoise="0.000000"
              crs:LocalMoire="0.000000"
              crs:LocalSaturation="0.000000"
              crs:LocalShadows2012="0.000000"
              crs:LocalSharpness="0.000000"
              crs:LocalTemperature="0.000000"
              crs:LocalTint="0.000000"
              crs:LocalToningHue="0.000000"
              crs:LocalToningSaturation="0.000000"
              crs:What="Correction">
            <crs:CorrectionMasks>
              <rdf:Seq>
                <rdf:li
                  crs:FullX="0.083913"
                  crs:FullY="0.268014"
                  crs:MaskValue="1.000000"
                  crs:What="Mask/Gradient"
                  crs:ZeroX="0.373893"
                  crs:ZeroY="0.266914"/>
              </rdf:Seq>
            </crs:CorrectionMasks>
            </rdf:Description>
          </rdf:li>
        </rdf:Seq>
      </crs:GradientBasedCorrections>
      <crs:ToneCurve>
        <rdf:Seq>
          <rdf:li>0, 0</rdf:li>
          <rdf:li>255, 255</rdf:li>
        </rdf:Seq>
      </crs:ToneCurve>
      <crs:ToneCurveBlue>
        <rdf:Seq>
          <rdf:li>0, 0</rdf:li>
          <rdf:li>255, 255</rdf:li>
        </rdf:Seq>
      </crs:ToneCurveBlue>
      <crs:ToneCurveGreen>
        <rdf:Seq>
          <rdf:li>0, 0</rdf:li>
          <rdf:li>255, 255</rdf:li>
        </rdf:Seq>
      </crs:ToneCurveGreen>
      <crs:ToneCurvePV2012>
        <rdf:Seq>
          <rdf:li>1, 2</rdf:li>
          <rdf:li>50, 47</rdf:li>
          <rdf:li>123, 131</rdf:li>
          <rdf:li>192, 189</rdf:li>
          <rdf:li>255, 255</rdf:li>
        </rdf:Seq>
      </crs:ToneCurvePV2012>
      <crs:ToneCurvePV2012Blue>
        <rdf:Seq>
          <rdf:li>0, 26</rdf:li>
          <rdf:li>34, 38</rdf:li>
          <rdf:li>92, 88</rdf:li>
          <rdf:li>163, 177</rdf:li>
          <rdf:li>222, 233</rdf:li>
          <rdf:li>255, 255</rdf:li>
        </rdf:Seq>
      </crs:ToneCurvePV2012Blue>
      <crs:ToneCurvePV2012Green>
        <rdf:Seq>
          <rdf:li>0, 14</rdf:li>
          <rdf:li>34, 27</rdf:li>
          <rdf:li>90, 88</rdf:li>
          <rdf:li>163, 180</rdf:li>
          <rdf:li>255, 255</rdf:li>
        </rdf:Seq>
      </crs:ToneCurvePV2012Green>
      <crs:ToneCurvePV2012Red>
        <rdf:Seq>
          <rdf:li>0, 6</rdf:li>
          <rdf:li>37, 26</rdf:li>
          <rdf:li>90, 88</rdf:li>
          <rdf:li>161, 182</rdf:li>
          <rdf:li>215, 228</rdf:li>
          <rdf:li>255, 255</rdf:li>
        </rdf:Seq>
      </crs:ToneCurvePV2012Red>
      <crs:ToneCurveRed>
        <rdf:Seq>
          <rdf:li>0, 0</rdf:li>
          <rdf:li>255, 255</rdf:li>
        </rdf:Seq>
      </crs:ToneCurveRed>
      <xmpMM:DerivedFrom
        stRef:documentID="7AE2C6EAF539AF535316F1B6DBCC874C"
        stRef:originalDocumentID="7AE2C6EAF539AF535316F1B6DBCC874C"/>
      <xmpMM:History>
        <rdf:Seq>
          <rdf:li
            stEvt:action="derived"
            stEvt:parameters="saved to new location"/>
          <rdf:li
            stEvt:action="saved"
            stEvt:changed="/"
            stEvt:instanceID="xmp.iid:04e69b56-089f-4b0b-a69d-08111a57f914"
            stEvt:softwareAgent="Adobe Photoshop Lightroom 5.7.1 (Macintosh)"
            stEvt:when="2019-02-16T19:26-05:00"/>
        </rdf:Seq>
      </xmpMM:History>
    </rdf:Description>
  </rdf:RDF>
</x:xmpmeta>
<?xpacket end="w"?>