src/commonTest/resources/com/ashampoo/xmp/sample_25.xmp
<?xpacket begin="﻿" id="W5M0MpCehiHzreSzNTczkc9d"?>
<x:xmpmeta xmlns:x="adobe:ns:meta/" x:xmptk="XMP Core 4.4.0-Exiv2">
 <rdf:RDF xmlns:rdf="http://www.w3.org/1999/02/22-rdf-syntax-ns#">
  <rdf:Description rdf:about=""
    xmlns:aux="http://ns.adobe.com/exif/1.0/aux/"
    xmlns:dc="http://purl.org/dc/elements/1.1/"
    xmlns:photoshop="http://ns.adobe.com/photoshop/1.0/"
    xmlns:xmp="http://ns.adobe.com/xap/1.0/"
    xmlns:xmpMM="http://ns.adobe.com/xap/1.0/mm/"
    xmlns:stRef="http://ns.adobe.com/xap/1.0/sType/ResourceRef#"
    xmlns:stEvt="http://ns.adobe.com/xap/1.0/sType/ResourceEvent#"
    xmlns:crs="http://ns.adobe.com/camera-raw-settings/1.0/"
    xmlns:tiff="http://ns.adobe.com/tiff/1.0/"
    xmlns:acdsee="http://ns.acdsee.com/iptc/1.0/"
    xmlns:exif="http://ns.adobe.com/exif/1.0/"
    xmlns:digiKam="http://www.digikam.org/ns/1.0/"
    xmlns:MicrosoftPhoto="http://ns.microsoft.com/photo/1.0/"
    xmlns:lr="http://ns.adobe.com/lightroom/1.0/"
    xmlns:mediapro="http://ns.iview-multimedia.com/mediapro/1.0/"
   aux:DistortionCorrectionAlreadyApplied="True"
   aux:Firmware="1.1.0"
   aux:FlashCompensation="0/1"
   aux:ImageNumber="0"
   aux:LateralChromaticAberrationCorrectionAlreadyApplied="True"
   aux:Lens="EF50mm f/1.8 II"
   aux:LensID="29"
   aux:LensInfo="50/1 50/1 0/0 0/0"
   aux:SerialNumber="1850746011"
   aux:VignetteCorrectionAlreadyApplied="True"
   dc:format="image/jpeg"
   photoshop:ColorMode="3"
   photoshop:ICCProfile="Adobe RGB (1998)"
   photoshop:DateCreated="2018-05-17T19:44:17"
   photoshop:Urgency="0"
   xmp:MetadataDate="2018-05-17T19:44:17"
   xmp:CreateDate="2018-05-17T19:44:17"
   xmp:ModifyDate="2018-05-17T19:44:17"
   xmp:Rating="4"
   xmpMM:DocumentID="adobe:docid:photoshop:f3167708-5a83-11e8-86f4-8e5f4d440010"
   xmpMM:InstanceID="xmp.iid:a330c3fb-4e2f-f948-bd00-04e86112dfd9"
   xmpMM:OriginalDocumentID="CBD5B8C3D30C0B13434B30B971EBF9DA"
   crs:AlreadyApplied="True"
   crs:AutoLateralCA="1"
   crs:Blacks2012="0"
   crs:BlueHue="0"
   crs:BlueSaturation="0"
   crs:CameraProfile="Adobe Standard"
   crs:CameraProfileDigest="1564A98C46E40037DB79C8C97BDEDC38"
   crs:Clarity2012="+33"
   crs:ColorNoiseReduction="25"
   crs:ColorNoiseReductionDetail="50"
   crs:ColorNoiseReductionSmoothness="50"
   crs:Contrast2012="0"
   crs:ConvertToGrayscale="False"
   crs:DefringeGreenAmount="0"
   crs:DefringeGreenHueHi="60"
   crs:DefringeGreenHueLo="40"
   crs:DefringePurpleAmount="0"
   crs:DefringePurpleHueHi="70"
   crs:DefringePurpleHueLo="30"
   crs:Dehaze="+5"
   crs:Exposure2012="-1.00"
   crs:GrainAmount="0"
   crs:GreenHue="0"
   crs:GreenSaturation="0"
   crs:HasCrop="False"
   crs:HasSettings="True"
   crs:Highlights2012="-39"
   crs:HueAdjustmentAqua="0"
   crs:HueAdjustmentBlue="0"
   crs:HueAdjustmentGreen="0"
   crs:HueAdjustmentMagenta="0"
   crs:HueAdjustmentOrange="0"
   crs:HueAdjustmentPurple="0"
   crs:HueAdjustmentRed="0"
   crs:HueAdjustmentYellow="0"
   crs:LensManualDistortionAmount="0"
   crs:LensProfileChromaticAberrationScale="100"
   crs:LensProfileDigest="91738A0C4927BAFDC05FE184C12E1434"
   crs:LensProfileDistortionScale="100"
   crs:LensProfileEnable="1"
   crs:LensProfileFilename="Canon EOS 5D Mark II (Canon EF 50mm f1.8 II) - RAW.lcp"
   crs:LensProfileName="Adobe (Canon EF 50mm f/1.8 II)"
   crs:LensProfileSetup="LensDefaults"
   crs:LensProfileVignettingScale="100"
   crs:LuminanceAdjustmentAqua="0"
   crs:LuminanceAdjustmentBlue="0"
   crs:LuminanceAdjustmentGreen="0"
   crs:LuminanceAdjustmentMagenta="0"
   crs:LuminanceAdjustmentOrange="0"
   crs:LuminanceAdjustmentPurple="0"
   crs:LuminanceAdjustmentRed="0"
   crs:LuminanceAdjustmentYellow="0"
   crs:LuminanceNoiseReductionContrast="0"
   crs:LuminanceNoiseReductionDetail="50"
   crs:LuminanceSmoothing="34"
   crs:ParametricDarks="+7"
   crs:ParametricHighlightSplit="75"
   crs:ParametricHighlights="0"
   crs:ParametricLights="+16"
   crs:ParametricMidtoneSplit="50"
   crs:ParametricShadowSplit="25"
   crs:ParametricShadows="-14"
   crs:PerspectiveAspect="0"
   crs:PerspectiveHorizontal="0"
   crs:PerspectiveRotate="0.0"
   crs:PerspectiveScale="100"
   crs:PerspectiveUpright="0"
   crs:PerspectiveVertical="0"
   crs:PerspectiveX="0.00"
   crs:PerspectiveY="0.00"
   crs:PostCropVignetteAmount="-8"
   crs:PostCropVignetteFeather="50"
   crs:PostCropVignetteHighlightContrast="0"
   crs:PostCropVignetteMidpoint="50"
   crs:PostCropVignetteRoundness="0"
   crs:PostCropVignetteStyle="1"
   crs:ProcessVersion="6.7"
   crs:RawFileName="_MG_2593.CR2"
   crs:RedHue="0"
   crs:RedSaturation="0"
   crs:Saturation="0"
   crs:SaturationAdjustmentAqua="0"
   crs:SaturationAdjustmentBlue="0"
   crs:SaturationAdjustmentGreen="0"
   crs:SaturationAdjustmentMagenta="0"
   crs:SaturationAdjustmentOrange="0"
   crs:SaturationAdjustmentPurple="0"
   crs:SaturationAdjustmentRed="0"
   crs:SaturationAdjustmentYellow="0"
   crs:ShadowTint="0"
   crs:Shadows2012="+3"
   crs:SharpenDetail="25"
   crs:SharpenEdgeMasking="74"
   crs:SharpenRadius="+1.0"
   crs:Sharpness="25"
   crs:SplitToningBalance="0"
   crs:SplitToningHighlightHue="0"
   crs:SplitToningHighlightSaturation="0"
   crs:SplitToningShadowHue="0"
   crs:SplitToningShadowSaturation="0"
   crs:Temperature="4900"
   crs:Tint="+4"
   crs:ToneCurveName="Medium Contrast"
   crs:ToneCurveName2012="Strong Contrast"
   crs:ToneMapStrength="0"
   crs:UprightCenterMode="0"
   crs:UprightCenterNormX="0.5"
   crs:UprightCenterNormY="0.5"
   crs:UprightFocalLength35mm="35"
   crs:UprightFocalMode="0"
   crs:UprightFourSegmentsCount="0"
   crs:UprightPreview="False"
   crs:UprightTransformCount="6"
   crs:UprightVersion="151388160"
   crs:Version="9.12"
   crs:Vibrance="+19"
   crs:VignetteAmount="0"
   crs:WhiteBalance="As Shot"
   crs:Whites2012="0"
   tiff:DateTime="2018-05-17T19:44:17"
   tiff:Orientation="1"
   tiff:XResolution="3000000/10000"
   tiff:YResolution="3000000/10000"
   tiff:ResolutionUnit="2"
   tiff:Make="Canon"
   tiff:Model="Canon EOS 500D"
   tiff:Software="Adobe Photoshop CC 2017 (Windows)"
   acdsee:notes="selective focus photography of hedgehog eating on green grass field"
   acdsee:rating="4"
   acdsee:categories="&lt;Categories&gt;&lt;Category Assigned=&quot;1&quot;&gt;mammal&lt;/Category&gt;&lt;Category Assigned=&quot;1&quot;&gt;rodent&lt;/Category&gt;&lt;Category Assigned=&quot;1&quot;&gt;hedgehog&lt;/Category&gt;&lt;Category Assigned=&quot;1&quot;&gt;porcupine&lt;/Category&gt;&lt;Category Assigned=&quot;1&quot;&gt;animal&lt;/Category&gt;&lt;/Categories&gt;"
   exif:DateTimeOriginal="2018-05-17T19:44:17"
   exif:ExifVersion="0221"
   exif:ColorSpace="65535"
   exif:PixelXDimension="4660"
   exif:PixelYDimension="3106"
   exif:ExposureTime="1/160"
   exif:FNumber="32/10"
   exif:ExposureProgram="1"
   exif:ShutterSpeedValue="7321928/1000000"
   exif:ApertureValue="3356144/1000000"
   exif:ExposureBiasValue="0/1"
   exif:MaxApertureValue="175/100"
   exif:MeteringMode="5"
   exif:FocalLength="50/1"
   exif:FocalPlaneXResolution="4752000/894"
   exif:FocalPlaneYResolution="3168000/593"
   exif:FocalPlaneResolutionUnit="2"
   exif:CustomRendered="0"
   exif:ExposureMode="1"
   exif:WhiteBalance="1"
   exif:SceneCaptureType="0"
   digiKam:PickLabel="0"
   digiKam:ColorLabel="0"
   MicrosoftPhoto:Rating="75">
   <dc:subject>
    <rdf:Bag>
     <rdf:li>mammal</rdf:li>
     <rdf:li>rodent</rdf:li>
     <rdf:li>hedgehog</rdf:li>
     <rdf:li>porcupine</rdf:li>
     <rdf:li>animal</rdf:li>
    </rdf:Bag>
   </dc:subject>
   <dc:description>
    <rdf:Alt>
     <rdf:li xml:lang="x-default">selective focus photography of hedgehog eating on green grass field</rdf:li>
    </rdf:Alt>
   </dc:description>
   <photoshop:DocumentAncestors>
    <rdf:Bag>
     <rdf:li>871ABA18D31FD8E7DBCC53B9FE0224AF</rdf:li>
     <rdf:li>FD7181A14C33CB21D9F24DFA009838BB</rdf:li>
     <rdf:li>adobe:docid:photoshop:12be8701-ee83-11dc-8fa4-839a83b75f76</rdf:li>
     <rdf:li>adobe:docid:photoshop:8e134c0c-d987-11e1-8180-e5485f4b3dd6</rdf:li>
     <rdf:li>adobe:docid:photoshop:b431105b-06cd-11e8-871a-e51073a125a5</rdf:li>
     <rdf:li>uuid:7482E5E1C880E2118C5CA233DA119F04</rdf:li>
     <rdf:li>uuid:B817E0D43CEFDB11B569A5BC76F1A641</rdf:li>
     <rdf:li>uuid:F29EE4DF7EE8DC118DF8881DDBB15AA6</rdf:li>
     <rdf:li>uuid:F5473D8EC2CFDD11A615E91EF51C8E6B</rdf:li>
     <rdf:li>uuid:e6789bf8-372e-4f3f-9a32-51adbe529a51</rdf:li>
     <rdf:li>xmp.did:026DA6464E99E5118955C48E323C1370</rdf:li>
     <rdf:li>xmp.did:04BFFCF3DA20E411A80BEFF385C528EF</rdf:li>
     <rdf:li>xmp.did:05BFFCF3DA20E411A80BEFF385C528EF</rdf:li>
     <rdf:li>xmp.did:06BFFCF3DA20E411A80BEFF385C528EF</rdf:li>
     <rdf:li>xmp.did:15E498DDD1BCE3118479C8D66754C651</rdf:li>
     <rdf:li>xmp.did:1BE35DF84721E411BCDC879249A1E379</rdf:li>
     <rdf:li>xmp.did:1CE35DF84721E411BCDC879249A1E379</rdf:li>
     <rdf:li>xmp.did:1d863f65-8cb9-204c-a7f2-46ae0b82ab5d</rdf:li>
     <rdf:li>xmp.did:1edd63cf-63f1-be43-8eb6-28739a04fc34</rdf:li>
     <rdf:li>xmp.did:2A536F8FF323E4119256983A0A8E27F4</rdf:li>
     <rdf:li>xmp.did:2B536F8FF323E4119256983A0A8E27F4</rdf:li>
     <rdf:li>xmp.did:3277AEDEF242E611A6CA9D14FBC23D21</rdf:li>
     <rdf:li>xmp.did:345F41AC61FFE511984BD03C261E519F</rdf:li>
     <rdf:li>xmp.did:38E03B705845E4119D63AC8F7240C674</rdf:li>
     <rdf:li>xmp.did:676074CE1267E2118E9F83D25945345A</rdf:li>
     <rdf:li>xmp.did:72319FB1F844E41190628966A279BD7B</rdf:li>
     <rdf:li>xmp.did:7DAF784D0E67E211B5DF870CB1273C7A</rdf:li>
     <rdf:li>xmp.did:93B00518BC9AE411B0F7CA6000FB75A5</rdf:li>
     <rdf:li>xmp.did:9D0D9797999EE41193BFE3E162C5B50C</rdf:li>
     <rdf:li>xmp.did:A65843342923E411A15FDD5EB829D6CF</rdf:li>
     <rdf:li>xmp.did:B644D45FBBBCE1119D66D9D8E4A4AB2E</rdf:li>
     <rdf:li>xmp.did:B7A1306DA368E21194B2DCB767C38B70</rdf:li>
     <rdf:li>xmp.did:B844D45FBBBCE1119D66D9D8E4A4AB2E</rdf:li>
     <rdf:li>xmp.did:BA19A591633FE6118B589AE61772D815</rdf:li>
     <rdf:li>xmp.did:CD0B892B2DA7E411B204F4CC894F2836</rdf:li>
     <rdf:li>xmp.did:D35C2DD9103FE611887695DCDE94486C</rdf:li>
     <rdf:li>xmp.did:E2465DCDA944E411B6E28C01EC3A081F</rdf:li>
     <rdf:li>xmp.did:E6465DCDA944E411B6E28C01EC3A081F</rdf:li>
     <rdf:li>xmp.did:E679195AAFC3E511B30DF07EB0FADE24</rdf:li>
     <rdf:li>xmp.did:E7368B9DDBD6E4118EDED9318DFC5458</rdf:li>
     <rdf:li>xmp.did:FC05A09BD220E4118462AF7374FB7815</rdf:li>
    </rdf:Bag>
   </photoshop:DocumentAncestors>
   <xmpMM:DerivedFrom
    stRef:documentID="xmp.did:1d863f65-8cb9-204c-a7f2-46ae0b82ab5d"
    stRef:instanceID="xmp.iid:538f1514-22d7-f448-8555-37cf07bc0117"
    stRef:originalDocumentID="CBD5B8C3D30C0B13434B30B971EBF9DA"/>
   <xmpMM:History>
    <rdf:Seq>
     <rdf:li
      stEvt:action="derived"
      stEvt:parameters="converted from image/x-canon-cr2 to image/tiff"/>
     <rdf:li
      stEvt:action="saved"
      stEvt:changed="/"
      stEvt:instanceID="xmp.iid:1edd63cf-63f1-be43-8eb6-28739a04fc34"
      stEvt:softwareAgent="Adobe Photoshop Camera Raw 9.12 (Windows)"
      stEvt:when="2018-05-18T11:54:23+02:00"/>
     <rdf:li
      stEvt:action="saved"
      stEvt:changed="/"
      stEvt:instanceID="xmp.iid:213d0dd5-b1d2-ea41-bd05-7e1fea066277"
      stEvt:softwareAgent="Adobe Photoshop CC 2017 (Windows)"
      stEvt:when="2018-05-18T12:11:10+02:00"/>
     <rdf:li
      stEvt:action="converted"
      stEvt:parameters="from image/tiff to application/vnd.adobe.photoshop"/>
     <rdf:li
      stEvt:action="derived"
      stEvt:parameters="converted from image/tiff to application/vnd.adobe.photoshop"/>
     <rdf:li
      stEvt:action="saved"
      stEvt:changed="/"
      stEvt:instanceID="xmp.iid:1d863f65-8cb9-204c-a7f2-46ae0b82ab5d"
      stEvt:softwareAgent="Adobe Photoshop CC 2017 (Windows)"
      stEvt:when="2018-05-18T12:11:10+02:00"/>
     <rdf:li
      stEvt:action="saved"
      stEvt:changed="/"
      stEvt:instanceID="xmp.iid:538f1514-22d7-f448-8555-37cf07bc0117"
      stEvt:softwareAgent="Adobe Photoshop CC 2017 (Windows)"
      stEvt:when="2018-05-18T12:12:44+02:00"/>
     <rdf:li
      stEvt:action="converted"
      stEvt:parameters="from application/vnd.adobe.photoshop to image/jpeg"/>
     <rdf:li
      stEvt:action="derived"
      stEvt:parameters="converted from application/vnd.adobe.photoshop to image/jpeg"/>
     <rdf:li
      stEvt:action="saved"
      stEvt:changed="/"
      stEvt:instanceID="xmp.iid:a330c3fb-4e2f-f948-bd00-04e86112dfd9"
      stEvt:softwareAgent="Adobe Photoshop CC 2017 (Windows)"
      stEvt:when="2018-05-18T12:12:44+02:00"/>
    </rdf:Seq>
   </xmpMM:History>
   <crs:ToneCurve>
    <rdf:Seq>
     <rdf:li>0, 0</rdf:li>
     <rdf:li>32, 22</rdf:li>
     <rdf:li>64, 56</rdf:li>
     <rdf:li>128, 128</rdf:li>
     <rdf:li>192, 196</rdf:li>
     <rdf:li>255, 255</rdf:li>
    </rdf:Seq>
   </crs:ToneCurve>
   <crs:ToneCurveBlue>
    <rdf:Seq>
     <rdf:li>0, 0</rdf:li>
     <rdf:li>255, 255</rdf:li>
    </rdf:Seq>
   </crs:ToneCurveBlue>
   <crs:ToneCurveGreen>
    <rdf:Seq>
     <rdf:li>0, 0</rdf:li>
     <rdf:li>255, 255</rdf:li>
    </rdf:Seq>
   </crs:ToneCurveGreen>
   <crs:ToneCurvePV2012>
    <rdf:Seq>
     <rdf:li>0, 0</rdf:li>
     <rdf:li>32, 16</rdf:li>
     <rdf:li>64, 50</rdf:li>
     <rdf:li>128, 128</rdf:li>
     <rdf:li>192, 202</rdf:li>
     <rdf:li>255, 255</rdf:li>
    </rdf:Seq>
   </crs:ToneCurvePV2012>
   <crs:ToneCurvePV2012Blue>
    <rdf:Seq>
     <rdf:li>0, 0</rdf:li>
     <rdf:li>255, 255</rdf:li>
    </rdf:Seq>
   </crs:ToneCurvePV2012Blue>
   <crs:ToneCurvePV2012Green>
    <rdf:Seq>
     <rdf:li>0, 0</rdf:li>
     <rdf:li>255, 255</rdf:li>
    </rdf:Seq>
   </crs:ToneCurvePV2012Green>
   <crs:ToneCurvePV2012Red>
    <rdf:Seq>
     <rdf:li>0, 0</rdf:li>
     <rdf:li>255, 255</rdf:li>
    </rdf:Seq>
   </crs:ToneCurvePV2012Red>
   <crs:ToneCurveRed>
    <rdf:Seq>
     <rdf:li>0, 0</rdf:li>
     <rdf:li>255, 255</rdf:li>
    </rdf:Seq>
   </crs:ToneCurveRed>
   <tiff:ImageDescription>
    <rdf:Alt>
     <rdf:li xml:lang="x-default">selective focus photography of hedgehog eating on green grass field</rdf:li>
    </rdf:Alt>
   </tiff:ImageDescription>
   <exif:UserComment>
    <rdf:Alt>
     <rdf:li xml:lang="x-default">selective focus photography of hedgehog eating on green grass field</rdf:li>
    </rdf:Alt>
   </exif:UserComment>
   <exif:ISOSpeedRatings>
    <rdf:Seq>
     <rdf:li>100</rdf:li>
    </rdf:Seq>
   </exif:ISOSpeedRatings>
   <exif:Flash
    exif:Fired="False"
    exif:Return="0"
    exif:Mode="2"
    exif:Function="False"
    exif:RedEyeMode="False"/>
   <digiKam:TagsList>
    <rdf:Seq>
     <rdf:li>mammal</rdf:li>
     <rdf:li>rodent</rdf:li>
     <rdf:li>hedgehog</rdf:li>
     <rdf:li>porcupine</rdf:li>
     <rdf:li>animal</rdf:li>
    </rdf:Seq>
   </digiKam:TagsList>
   <MicrosoftPhoto:LastKeywordXMP>
    <rdf:Bag>
     <rdf:li>mammal</rdf:li>
     <rdf:li>rodent</rdf:li>
     <rdf:li>hedgehog</rdf:li>
     <rdf:li>porcupine</rdf:li>
     <rdf:li>animal</rdf:li>
    </rdf:Bag>
   </MicrosoftPhoto:LastKeywordXMP>
   <lr:hierarchicalSubject>
    <rdf:Bag>
     <rdf:li>mammal</rdf:li>
     <rdf:li>rodent</rdf:li>
     <rdf:li>hedgehog</rdf:li>
     <rdf:li>porcupine</rdf:li>
     <rdf:li>animal</rdf:li>
    </rdf:Bag>
   </lr:hierarchicalSubject>
   <mediapro:CatalogSets>
    <rdf:Bag>
     <rdf:li>mammal</rdf:li>
     <rdf:li>rodent</rdf:li>
     <rdf:li>hedgehog</rdf:li>
     <rdf:li>porcupine</rdf:li>
     <rdf:li>animal</rdf:li>
    </rdf:Bag>
   </mediapro:CatalogSets>
  </rdf:Description>
 </rdf:RDF>
</x:xmpmeta>
<?xpacket end="w"?>