src/commonTest/resources/com/ashampoo/xmp/sample_29.xmp
<?xpacket begin="﻿" id="W5M0MpCehiHzreSzNTczkc9d"?>
<x:xmpmeta xmlns:x="adobe:ns:meta/" x:xmptk="XMP Core 4.4.0-Exiv2">
 <rdf:RDF xmlns:rdf="http://www.w3.org/1999/02/22-rdf-syntax-ns#">
  <rdf:Description rdf:about=""
    xmlns:aux="http://ns.adobe.com/exif/1.0/aux/"
    xmlns:dc="http://purl.org/dc/elements/1.1/"
    xmlns:photoshop="http://ns.adobe.com/photoshop/1.0/"
    xmlns:xmp="http://ns.adobe.com/xap/1.0/"
    xmlns:xmpMM="http://ns.adobe.com/xap/1.0/mm/"
    xmlns:stRef="http://ns.adobe.com/xap/1.0/sType/ResourceRef#"
    xmlns:stEvt="http://ns.adobe.com/xap/1.0/sType/ResourceEvent#"
    xmlns:crs="http://ns.adobe.com/camera-raw-settings/1.0/"
    xmlns:tiff="http://ns.adobe.com/tiff/1.0/"
    xmlns:acdsee="http://ns.acdsee.com/iptc/1.0/"
    xmlns:exif="http://ns.adobe.com/exif/1.0/"
    xmlns:digiKam="http://www.digikam.org/ns/1.0/"
    xmlns:MicrosoftPhoto="http://ns.microsoft.com/photo/1.0/"
   aux:ApproximateFocusDistance="189/100"
   aux:FlashCompensation="0/256"
   aux:Lens="OLYMPUS M.14-42mm F3.5-5.6 II R"
   aux:LensInfo="14/1 42/1 35/10 56/10"
   aux:LensSerialNumber="ABGD50966"
   aux:SerialNumber="V5NG17123"
   dc:format="image/jpeg"
   photoshop:ColorMode="3"
   photoshop:ICCProfile="sRGB IEC61966-2.1"
   photoshop:LegacyIPTCDigest="6C18D5C06A7645432BE3ADFC93F4531B"
   photoshop:DateCreated="2017-07-16T20:26:34"
   photoshop:Urgency="0"
   xmp:CreatorTool="Adobe Photoshop Lightroom 5.7.1 (Windows)"
   xmp:MetadataDate="2017-07-16T20:26:34"
   xmp:CreateDate="2017-07-16T20:26:34"
   xmp:ModifyDate="2017-07-16T20:26:34"
   xmp:Rating="5"
   xmpMM:DocumentID="xmp.did:5ea9d51e-d405-b74e-ab99-6a8feaf23437"
   xmpMM:InstanceID="xmp.iid:8b895bf3-dc2a-ad46-87ec-b744c65e1868"
   xmpMM:OriginalDocumentID="492DCFEBB48E251B850E7B51EAD4BA26"
   crs:AlreadyApplied="True"
   crs:AutoLateralCA="0"
   crs:AutoWhiteVersion="134348800"
   crs:Blacks2012="-7"
   crs:BlueHue="-12"
   crs:BlueSaturation="-9"
   crs:CameraProfile="Adobe Standard"
   crs:Clarity2012="+4"
   crs:ColorNoiseReduction="40"
   crs:ColorNoiseReductionDetail="50"
   crs:ColorNoiseReductionSmoothness="50"
   crs:Contrast2012="+11"
   crs:ConvertToGrayscale="False"
   crs:CropAngle="0.667102"
   crs:CropBottom="0.954481"
   crs:CropConstrainToWarp="0"
   crs:CropLeft="0.03267"
   crs:CropRight="0.903139"
   crs:CropTop="0.09595"
   crs:DefringeGreenAmount="0"
   crs:DefringeGreenHueHi="60"
   crs:DefringeGreenHueLo="40"
   crs:DefringePurpleAmount="0"
   crs:DefringePurpleHueHi="70"
   crs:DefringePurpleHueLo="30"
   crs:Exposure2012="+0.41"
   crs:GrainAmount="0"
   crs:GreenHue="+32"
   crs:GreenSaturation="-8"
   crs:HasCrop="True"
   crs:HasSettings="True"
   crs:Highlights2012="-100"
   crs:HueAdjustmentAqua="+100"
   crs:HueAdjustmentBlue="-21"
   crs:HueAdjustmentGreen="+33"
   crs:HueAdjustmentMagenta="+8"
   crs:HueAdjustmentOrange="-8"
   crs:HueAdjustmentPurple="-2"
   crs:HueAdjustmentRed="+8"
   crs:HueAdjustmentYellow="-20"
   crs:LensManualDistortionAmount="0"
   crs:LensProfileEnable="0"
   crs:LensProfileSetup="LensDefaults"
   crs:LuminanceAdjustmentAqua="-19"
   crs:LuminanceAdjustmentBlue="-16"
   crs:LuminanceAdjustmentGreen="+75"
   crs:LuminanceAdjustmentMagenta="0"
   crs:LuminanceAdjustmentOrange="-8"
   crs:LuminanceAdjustmentPurple="-33"
   crs:LuminanceAdjustmentRed="+4"
   crs:LuminanceAdjustmentYellow="+68"
   crs:LuminanceNoiseReductionContrast="32"
   crs:LuminanceNoiseReductionDetail="72"
   crs:LuminanceSmoothing="28"
   crs:ParametricDarks="0"
   crs:ParametricHighlightSplit="75"
   crs:ParametricHighlights="0"
   crs:ParametricLights="0"
   crs:ParametricMidtoneSplit="50"
   crs:ParametricShadowSplit="25"
   crs:ParametricShadows="0"
   crs:PerspectiveAspect="0"
   crs:PerspectiveHorizontal="0"
   crs:PerspectiveRotate="0.0"
   crs:PerspectiveScale="100"
   crs:PerspectiveUpright="0"
   crs:PerspectiveVertical="0"
   crs:PostCropVignetteAmount="-9"
   crs:PostCropVignetteFeather="50"
   crs:PostCropVignetteHighlightContrast="0"
   crs:PostCropVignetteMidpoint="49"
   crs:PostCropVignetteRoundness="+1"
   crs:PostCropVignetteStyle="1"
   crs:ProcessVersion="6.7"
   crs:RedHue="+18"
   crs:RedSaturation="-27"
   crs:Saturation="+42"
   crs:SaturationAdjustmentAqua="-100"
   crs:SaturationAdjustmentBlue="-58"
   crs:SaturationAdjustmentGreen="-10"
   crs:SaturationAdjustmentMagenta="-100"
   crs:SaturationAdjustmentOrange="-32"
   crs:SaturationAdjustmentPurple="+7"
   crs:SaturationAdjustmentRed="+1"
   crs:SaturationAdjustmentYellow="-80"
   crs:ShadowTint="0"
   crs:Shadows2012="+43"
   crs:SharpenDetail="25"
   crs:SharpenEdgeMasking="0"
   crs:SharpenRadius="+1.0"
   crs:Sharpness="25"
   crs:SplitToningBalance="0"
   crs:SplitToningHighlightHue="0"
   crs:SplitToningHighlightSaturation="0"
   crs:SplitToningShadowHue="0"
   crs:SplitToningShadowSaturation="0"
   crs:Temperature="4703"
   crs:Tint="+22"
   crs:ToneCurveName="Linear"
   crs:ToneCurveName2012="Custom"
   crs:Version="8.7.1"
   crs:Vibrance="-64"
   crs:VignetteAmount="0"
   crs:WhiteBalance="Custom"
   crs:Whites2012="+41"
   tiff:DateTime="2017-07-16T20:26:34"
   tiff:ImageWidth="2920"
   tiff:ImageLength="4045"
   tiff:PhotometricInterpretation="2"
   tiff:Orientation="1"
   tiff:SamplesPerPixel="3"
   tiff:XResolution="1500000/10000"
   tiff:YResolution="1500000/10000"
   tiff:ResolutionUnit="2"
   tiff:Make="OLYMPUS IMAGING CORP."
   tiff:Model="E-M10"
   tiff:Software="Adobe Photoshop CC (Windows)"
   acdsee:notes="OLYMPUS DIGITAL CAMERA"
   acdsee:rating="5"
   exif:DateTimeOriginal="2017-07-16T20:26:34"
   exif:ExifVersion="0230"
   exif:ColorSpace="1"
   exif:PixelXDimension="2920"
   exif:PixelYDimension="4045"
   exif:ExposureTime="1/250"
   exif:FNumber="35/10"
   exif:ExposureProgram="1"
   exif:ShutterSpeedValue="7965784/1000000"
   exif:ApertureValue="361471/100000"
   exif:ExposureBiasValue="0/10"
   exif:MaxApertureValue="925/256"
   exif:MeteringMode="5"
   exif:LightSource="0"
   exif:FocalLength="14/1"
   exif:FocalPlaneXResolution="87196351/32768"
   exif:FocalPlaneYResolution="87196351/32768"
   exif:FocalPlaneResolutionUnit="3"
   exif:FileSource="3"
   exif:CFAPattern="2 0 2 0 0 1 1 2"
   exif:CustomRendered="0"
   exif:ExposureMode="1"
   exif:WhiteBalance="0"
   exif:DigitalZoomRatio="100/100"
   exif:FocalLengthIn35mmFilm="28"
   exif:SceneCaptureType="0"
   exif:GainControl="0"
   exif:Contrast="0"
   exif:Saturation="0"
   exif:Sharpness="0"
   digiKam:PickLabel="0"
   digiKam:ColorLabel="0"
   MicrosoftPhoto:Rating="99">
   <dc:description>
    <rdf:Alt>
     <rdf:li xml:lang="x-default">OLYMPUS DIGITAL CAMERA</rdf:li>
    </rdf:Alt>
   </dc:description>
   <xmpMM:DerivedFrom
    stRef:documentID="492DCFEBB48E251B850E7B51EAD4BA26"
    stRef:originalDocumentID="492DCFEBB48E251B850E7B51EAD4BA26"/>
   <xmpMM:History>
    <rdf:Seq>
     <rdf:li
      stEvt:action="derived"
      stEvt:parameters="converted from image/x-olympus-raw to image/jpeg, saved to new location"/>
     <rdf:li
      stEvt:action="saved"
      stEvt:changed="/"
      stEvt:instanceID="xmp.iid:5ea9d51e-d405-b74e-ab99-6a8feaf23437"
      stEvt:softwareAgent="Adobe Photoshop Lightroom 5.7.1 (Windows)"
      stEvt:when="2017-07-17T23:42:33+03:00"/>
     <rdf:li
      stEvt:action="saved"
      stEvt:changed="/"
      stEvt:instanceID="xmp.iid:8b895bf3-dc2a-ad46-87ec-b744c65e1868"
      stEvt:softwareAgent="Adobe Photoshop CC (Windows)"
      stEvt:when="2017-07-17T23:54:12+03:00"/>
    </rdf:Seq>
   </xmpMM:History>
   <crs:ToneCurve>
    <rdf:Seq>
     <rdf:li>0, 0</rdf:li>
     <rdf:li>255, 255</rdf:li>
    </rdf:Seq>
   </crs:ToneCurve>
   <crs:ToneCurveBlue>
    <rdf:Seq>
     <rdf:li>0, 0</rdf:li>
     <rdf:li>255, 255</rdf:li>
    </rdf:Seq>
   </crs:ToneCurveBlue>
   <crs:ToneCurveGreen>
    <rdf:Seq>
     <rdf:li>0, 0</rdf:li>
     <rdf:li>255, 255</rdf:li>
    </rdf:Seq>
   </crs:ToneCurveGreen>
   <crs:ToneCurvePV2012>
    <rdf:Seq>
     <rdf:li>1, 38</rdf:li>
     <rdf:li>55, 60</rdf:li>
     <rdf:li>118, 103</rdf:li>
     <rdf:li>189, 171</rdf:li>
     <rdf:li>255, 234</rdf:li>
    </rdf:Seq>
   </crs:ToneCurvePV2012>
   <crs:ToneCurvePV2012Blue>
    <rdf:Seq>
     <rdf:li>0, 4</rdf:li>
     <rdf:li>22, 19</rdf:li>
     <rdf:li>66, 56</rdf:li>
     <rdf:li>121, 121</rdf:li>
     <rdf:li>176, 189</rdf:li>
     <rdf:li>226, 231</rdf:li>
     <rdf:li>255, 253</rdf:li>
    </rdf:Seq>
   </crs:ToneCurvePV2012Blue>
   <crs:ToneCurvePV2012Green>
    <rdf:Seq>
     <rdf:li>0, 3</rdf:li>
     <rdf:li>25, 19</rdf:li>
     <rdf:li>69, 57</rdf:li>
     <rdf:li>120, 123</rdf:li>
     <rdf:li>180, 197</rdf:li>
     <rdf:li>255, 253</rdf:li>
    </rdf:Seq>
   </crs:ToneCurvePV2012Green>
   <crs:ToneCurvePV2012Red>
    <rdf:Seq>
     <rdf:li>0, 0</rdf:li>
     <rdf:li>21, 10</rdf:li>
     <rdf:li>73, 56</rdf:li>
     <rdf:li>118, 120</rdf:li>
     <rdf:li>181, 198</rdf:li>
     <rdf:li>255, 253</rdf:li>
    </rdf:Seq>
   </crs:ToneCurvePV2012Red>
   <crs:ToneCurveRed>
    <rdf:Seq>
     <rdf:li>0, 0</rdf:li>
     <rdf:li>255, 255</rdf:li>
    </rdf:Seq>
   </crs:ToneCurveRed>
   <tiff:ImageDescription>
    <rdf:Alt>
     <rdf:li xml:lang="x-default">OLYMPUS DIGITAL CAMERA</rdf:li>
    </rdf:Alt>
   </tiff:ImageDescription>
   <tiff:BitsPerSample>
    <rdf:Seq>
     <rdf:li>8 8 8</rdf:li>
    </rdf:Seq>
   </tiff:BitsPerSample>
   <exif:UserComment>
    <rdf:Alt>
     <rdf:li xml:lang="x-default">OLYMPUS DIGITAL CAMERA</rdf:li>
    </rdf:Alt>
   </exif:UserComment>
   <exif:ISOSpeedRatings>
    <rdf:Seq>
     <rdf:li>100</rdf:li>
    </rdf:Seq>
   </exif:ISOSpeedRatings>
   <exif:Flash
    exif:Fired="False"
    exif:Return="0"
    exif:Mode="3"
    exif:Function="False"
    exif:RedEyeMode="False"/>
  </rdf:Description>
 </rdf:RDF>
</x:xmpmeta>
<?xpacket end="w"?>