src/commonTest/resources/com/ashampoo/xmp/sample_9_formatted_compact.xmp
<?xpacket begin="﻿" id="W5M0MpCehiHzreSzNTczkc9d"?>
<x:xmpmeta xmlns:x="adobe:ns:meta/" x:xmptk="Ashampoo XMP Core 1.6.1">
  <rdf:RDF xmlns:rdf="http://www.w3.org/1999/02/22-rdf-syntax-ns#">
    <rdf:Description rdf:about=""
        xmlns:aux="http://ns.adobe.com/exif/1.0/aux/"
        xmlns:crs="http://ns.adobe.com/camera-raw-settings/1.0/"
        xmlns:dc="http://purl.org/dc/elements/1.1/"
        xmlns:photoshop="http://ns.adobe.com/photoshop/1.0/"
        xmlns:xmp="http://ns.adobe.com/xap/1.0/"
        xmlns:xmpMM="http://ns.adobe.com/xap/1.0/mm/"
        xmlns:stRef="http://ns.adobe.com/xap/1.0/sType/ResourceRef#"
        xmlns:stEvt="http://ns.adobe.com/xap/1.0/sType/ResourceEvent#"
      aux:ApproximateFocusDistance="708/10"
      aux:ImageNumber="47813"
      aux:Lens="200.0-400.0 mm f/4.0"
      aux:LensID="168"
      aux:LensInfo="2000/10 4000/10 40/10 40/10"
      aux:SerialNumber="5000335"
      crs:AlreadyApplied="True"
      crs:AutoLateralCA="0"
      crs:Blacks2012="0"
      crs:BlueHue="0"
      crs:BlueSaturation="0"
      crs:CameraProfile="Adobe Standard"
      crs:CameraProfileDigest="7453B3B4E044C00997A55C30D2002AEF"
      crs:Clarity2012="+27"
      crs:ColorNoiseReduction="25"
      crs:ColorNoiseReductionDetail="50"
      crs:ColorNoiseReductionSmoothness="50"
      crs:Contrast2012="-43"
      crs:ConvertToGrayscale="False"
      crs:CropAngle="-0.948469"
      crs:CropBottom="0.803565"
      crs:CropConstrainToWarp="0"
      crs:CropLeft="0.309558"
      crs:CropRight="0.702666"
      crs:CropTop="0.425459"
      crs:DefringeGreenAmount="0"
      crs:DefringeGreenHueHi="60"
      crs:DefringeGreenHueLo="40"
      crs:DefringePurpleAmount="0"
      crs:DefringePurpleHueHi="70"
      crs:DefringePurpleHueLo="30"
      crs:Dehaze="+24"
      crs:Exposure2012="+0.60"
      crs:GrainAmount="0"
      crs:GreenHue="0"
      crs:GreenSaturation="0"
      crs:HasCrop="True"
      crs:HasSettings="True"
      crs:Highlights2012="0"
      crs:HueAdjustmentAqua="0"
      crs:HueAdjustmentBlue="0"
      crs:HueAdjustmentGreen="0"
      crs:HueAdjustmentMagenta="0"
      crs:HueAdjustmentOrange="0"
      crs:HueAdjustmentPurple="0"
      crs:HueAdjustmentRed="0"
      crs:HueAdjustmentYellow="0"
      crs:LensManualDistortionAmount="0"
      crs:LensProfileEnable="0"
      crs:LensProfileSetup="LensDefaults"
      crs:LuminanceAdjustmentAqua="0"
      crs:LuminanceAdjustmentBlue="-79"
      crs:LuminanceAdjustmentGreen="0"
      crs:LuminanceAdjustmentMagenta="0"
      crs:LuminanceAdjustmentOrange="0"
      crs:LuminanceAdjustmentPurple="0"
      crs:LuminanceAdjustmentRed="0"
      crs:LuminanceAdjustmentYellow="0"
      crs:LuminanceSmoothing="0"
      crs:OverrideLookVignette="False"
      crs:ParametricDarks="0"
      crs:ParametricHighlightSplit="75"
      crs:ParametricHighlights="0"
      crs:ParametricLights="0"
      crs:ParametricMidtoneSplit="50"
      crs:ParametricShadowSplit="25"
      crs:ParametricShadows="0"
      crs:PerspectiveAspect="0"
      crs:PerspectiveHorizontal="0"
      crs:PerspectiveRotate="0.0"
      crs:PerspectiveScale="100"
      crs:PerspectiveUpright="0"
      crs:PerspectiveVertical="0"
      crs:PerspectiveX="0.00"
      crs:PerspectiveY="0.00"
      crs:PostCropVignetteAmount="0"
      crs:ProcessVersion="11.0"
      crs:RedHue="0"
      crs:RedSaturation="0"
      crs:Saturation="+12"
      crs:SaturationAdjustmentAqua="0"
      crs:SaturationAdjustmentBlue="0"
      crs:SaturationAdjustmentGreen="0"
      crs:SaturationAdjustmentMagenta="0"
      crs:SaturationAdjustmentOrange="0"
      crs:SaturationAdjustmentPurple="0"
      crs:SaturationAdjustmentRed="0"
      crs:SaturationAdjustmentYellow="0"
      crs:ShadowTint="0"
      crs:Shadows2012="+67"
      crs:SharpenDetail="25"
      crs:SharpenEdgeMasking="0"
      crs:SharpenRadius="+1.0"
      crs:Sharpness="40"
      crs:SplitToningBalance="0"
      crs:SplitToningHighlightHue="0"
      crs:SplitToningHighlightSaturation="0"
      crs:SplitToningShadowHue="0"
      crs:SplitToningShadowSaturation="0"
      crs:Temperature="5700"
      crs:Tint="+22"
      crs:ToneCurveName="Medium Contrast"
      crs:ToneCurveName2012="Linear"
      crs:ToneMapStrength="0"
      crs:UprightCenterMode="0"
      crs:UprightCenterNormX="0.5"
      crs:UprightCenterNormY="0.5"
      crs:UprightFocalLength35mm="35"
      crs:UprightFocalMode="0"
      crs:UprightFourSegmentsCount="0"
      crs:UprightPreview="False"
      crs:UprightTransformCount="6"
      crs:UprightVersion="151388160"
      crs:Version="11.2"
      crs:Vibrance="+9"
      crs:VignetteAmount="0"
      crs:WhiteBalance="Custom"
      crs:Whites2012="0"
      dc:format="image/jpeg"
      photoshop:DateCreated="2019-11-03T14:55:39.04"
      xmp:CreateDate="2019-11-03T14:55:39.04"
      xmp:CreatorTool="Adobe Photoshop Lightroom Classic 8.2 (Macintosh)"
      xmp:MetadataDate="2019-11-04T20:35:45-08:00"
      xmp:ModifyDate="2019-11-04T20:35:45-08:00"
      xmp:Rating="2"
      xmpMM:DocumentID="xmp.did:e99f0b53-6af5-4350-ba23-7639d7cddd25"
      xmpMM:InstanceID="xmp.iid:e99f0b53-6af5-4350-ba23-7639d7cddd25"
      xmpMM:OriginalDocumentID="4FE322F15156DA8278397D8637530F9C">
      <crs:CircularGradientBasedCorrections>
        <rdf:Seq>
          <rdf:li>
            <rdf:Description
              crs:CorrectionActive="true"
              crs:CorrectionAmount="1.000000"
              crs:LocalBlacks2012="0.000000"
              crs:LocalBrightness="0.000000"
              crs:LocalClarity="0.000000"
              crs:LocalClarity2012="0.097475"
              crs:LocalContrast="0.000000"
              crs:LocalContrast2012="-0.118550"
              crs:LocalDefringe="0.000000"
              crs:LocalDehaze="0.107831"
              crs:LocalExposure="0.000000"
              crs:LocalExposure2012="0.186773"
              crs:LocalHighlights2012="-0.194646"
              crs:LocalLuminanceNoise="0.000000"
              crs:LocalMoire="0.000000"
              crs:LocalSaturation="0.095294"
              crs:LocalShadows2012="0.006995"
              crs:LocalSharpness="0.120094"
              crs:LocalTemperature="0.000000"
              crs:LocalTint="0.000000"
              crs:LocalToningHue="240.000000"
              crs:LocalToningSaturation="0.000000"
              crs:LocalWhites2012="0.017533"
              crs:What="Correction">
            <crs:CorrectionMasks>
              <rdf:Seq>
                <rdf:li
                  crs:Angle="0.000000"
                  crs:Bottom="0.514759"
                  crs:Feather="+50"
                  crs:Flipped="true"
                  crs:Left="0.447081"
                  crs:MaskValue="1.000000"
                  crs:Midpoint="+50"
                  crs:Right="0.473742"
                  crs:Roundness="0"
                  crs:Top="0.494124"
                  crs:Version="+2"
                  crs:What="Mask/CircularGradient"/>
              </rdf:Seq>
            </crs:CorrectionMasks>
            <crs:CorrectionRangeMask
              crs:ColorAmount="0.500000"
              crs:DepthFeather="0.500000"
              crs:DepthMax="1.000000"
              crs:DepthMin="0.000000"
              crs:LumFeather="0.500000"
              crs:LumMax="1.000000"
              crs:LumMin="0.000000"
              crs:Type="0"
              crs:Version="+2"/>
            </rdf:Description>
          </rdf:li>
        </rdf:Seq>
      </crs:CircularGradientBasedCorrections>
      <crs:Look>
        <rdf:Description
          crs:Amount="1.000000"
          crs:Name="Adobe Color"
          crs:SupportsAmount="false"
          crs:SupportsMonochrome="false"
          crs:SupportsOutputReferred="false"
          crs:UUID="B952C231111CD8E0ECCF14B86BAA7077">
        <crs:Group>
          <rdf:Alt>
            <rdf:li xml:lang="x-default">Profiles</rdf:li>
          </rdf:Alt>
        </crs:Group>
        <crs:Parameters>
          <rdf:Description
            crs:CameraProfile="Adobe Standard"
            crs:ConvertToGrayscale="False"
            crs:LookTable="E1095149FDB39D7A057BAB208837E2E1"
            crs:ProcessVersion="11.0"
            crs:Version="11.2">
          <crs:ToneCurvePV2012>
            <rdf:Seq>
              <rdf:li>0, 0</rdf:li>
              <rdf:li>22, 16</rdf:li>
              <rdf:li>40, 35</rdf:li>
              <rdf:li>127, 127</rdf:li>
              <rdf:li>224, 230</rdf:li>
              <rdf:li>240, 246</rdf:li>
              <rdf:li>255, 255</rdf:li>
            </rdf:Seq>
          </crs:ToneCurvePV2012>
          <crs:ToneCurvePV2012Blue>
            <rdf:Seq>
              <rdf:li>0, 0</rdf:li>
              <rdf:li>255, 255</rdf:li>
            </rdf:Seq>
          </crs:ToneCurvePV2012Blue>
          <crs:ToneCurvePV2012Green>
            <rdf:Seq>
              <rdf:li>0, 0</rdf:li>
              <rdf:li>255, 255</rdf:li>
            </rdf:Seq>
          </crs:ToneCurvePV2012Green>
          <crs:ToneCurvePV2012Red>
            <rdf:Seq>
              <rdf:li>0, 0</rdf:li>
              <rdf:li>255, 255</rdf:li>
            </rdf:Seq>
          </crs:ToneCurvePV2012Red>
          </rdf:Description>
        </crs:Parameters>
        </rdf:Description>
      </crs:Look>
      <crs:ToneCurve>
        <rdf:Seq>
          <rdf:li>0, 0</rdf:li>
          <rdf:li>32, 22</rdf:li>
          <rdf:li>64, 56</rdf:li>
          <rdf:li>128, 128</rdf:li>
          <rdf:li>192, 196</rdf:li>
          <rdf:li>255, 255</rdf:li>
        </rdf:Seq>
      </crs:ToneCurve>
      <crs:ToneCurveBlue>
        <rdf:Seq>
          <rdf:li>0, 0</rdf:li>
          <rdf:li>255, 255</rdf:li>
        </rdf:Seq>
      </crs:ToneCurveBlue>
      <crs:ToneCurveGreen>
        <rdf:Seq>
          <rdf:li>0, 0</rdf:li>
          <rdf:li>255, 255</rdf:li>
        </rdf:Seq>
      </crs:ToneCurveGreen>
      <crs:ToneCurvePV2012>
        <rdf:Seq>
          <rdf:li>0, 0</rdf:li>
          <rdf:li>255, 255</rdf:li>
        </rdf:Seq>
      </crs:ToneCurvePV2012>
      <crs:ToneCurvePV2012Blue>
        <rdf:Seq>
          <rdf:li>0, 0</rdf:li>
          <rdf:li>255, 255</rdf:li>
        </rdf:Seq>
      </crs:ToneCurvePV2012Blue>
      <crs:ToneCurvePV2012Green>
        <rdf:Seq>
          <rdf:li>0, 0</rdf:li>
          <rdf:li>255, 255</rdf:li>
        </rdf:Seq>
      </crs:ToneCurvePV2012Green>
      <crs:ToneCurvePV2012Red>
        <rdf:Seq>
          <rdf:li>0, 0</rdf:li>
          <rdf:li>255, 255</rdf:li>
        </rdf:Seq>
      </crs:ToneCurvePV2012Red>
      <crs:ToneCurveRed>
        <rdf:Seq>
          <rdf:li>0, 0</rdf:li>
          <rdf:li>255, 255</rdf:li>
        </rdf:Seq>
      </crs:ToneCurveRed>
      <xmpMM:DerivedFrom
        stRef:documentID="xmp.did:0ce5a9f4-a7f1-47a7-a5be-1486c7c1fa92"
        stRef:instanceID="xmp.iid:0ce5a9f4-a7f1-47a7-a5be-1486c7c1fa92"
        stRef:originalDocumentID="4FE322F15156DA8278397D8637530F9C"/>
      <xmpMM:History>
        <rdf:Seq>
          <rdf:li
            stEvt:action="derived"
            stEvt:parameters="converted from image/x-nikon-nef to image/jpeg, saved to new location"/>
          <rdf:li
            stEvt:action="saved"
            stEvt:changed="/"
            stEvt:instanceID="xmp.iid:0ce5a9f4-a7f1-47a7-a5be-1486c7c1fa92"
            stEvt:softwareAgent="Adobe Photoshop Lightroom Classic 8.2 (Macintosh)"
            stEvt:when="2019-11-04T20:35:45-08:00"/>
          <rdf:li
            stEvt:action="converted"
            stEvt:parameters="from image/jpeg to image/x-nikon-nef"/>
          <rdf:li
            stEvt:action="derived"
            stEvt:parameters="converted from image/x-nikon-nef to image/jpeg, saved to new location"/>
          <rdf:li
            stEvt:action="saved"
            stEvt:changed="/"
            stEvt:instanceID="xmp.iid:e99f0b53-6af5-4350-ba23-7639d7cddd25"
            stEvt:softwareAgent="Adobe Photoshop Lightroom Classic 8.2 (Macintosh)"
            stEvt:when="2019-11-04T20:35:45-08:00"/>
        </rdf:Seq>
      </xmpMM:History>
    </rdf:Description>
  </rdf:RDF>
</x:xmpmeta>
<?xpacket end="w"?>