src/commonTest/resources/com/ashampoo/xmp/sample_19_formatted_compact.xmp
<?xpacket begin="﻿" id="W5M0MpCehiHzreSzNTczkc9d"?>
<x:xmpmeta xmlns:x="adobe:ns:meta/" x:xmptk="Ashampoo XMP Core 1.4.1">
  <rdf:RDF xmlns:rdf="http://www.w3.org/1999/02/22-rdf-syntax-ns#">
    <rdf:Description rdf:about=""
        xmlns:aux="http://ns.adobe.com/exif/1.0/aux/"
        xmlns:crs="http://ns.adobe.com/camera-raw-settings/1.0/"
        xmlns:dc="http://purl.org/dc/elements/1.1/"
        xmlns:photoshop="http://ns.adobe.com/photoshop/1.0/"
        xmlns:xmp="http://ns.adobe.com/xap/1.0/"
        xmlns:xmpMM="http://ns.adobe.com/xap/1.0/mm/"
        xmlns:stRef="http://ns.adobe.com/xap/1.0/sType/ResourceRef#"
        xmlns:stEvt="http://ns.adobe.com/xap/1.0/sType/ResourceEvent#"
      aux:ApproximateFocusDistance="355/100"
      aux:DistortionCorrectionAlreadyApplied="True"
      aux:ImageNumber="23644"
      aux:Lens="24.0-70.0 mm f/2.8"
      aux:LensID="170"
      aux:LensInfo="240/10 700/10 28/10 28/10"
      aux:SerialNumber="3036315"
      aux:VignetteCorrectionAlreadyApplied="True"
      crs:AlreadyApplied="True"
      crs:AutoLateralCA="0"
      crs:Blacks2012="0"
      crs:BlueHue="0"
      crs:BlueSaturation="0"
      crs:CameraProfile="Embedded"
      crs:CameraProfileDigest="54650A341B5B5CCAE8442D0B43A92BCE"
      crs:Clarity2012="0"
      crs:ColorNoiseReduction="0"
      crs:Contrast2012="-6"
      crs:ConvertToGrayscale="False"
      crs:DefringeGreenAmount="0"
      crs:DefringeGreenHueHi="60"
      crs:DefringeGreenHueLo="40"
      crs:DefringePurpleAmount="0"
      crs:DefringePurpleHueHi="70"
      crs:DefringePurpleHueLo="30"
      crs:Dehaze="0"
      crs:Exposure2012="0.00"
      crs:GrainAmount="0"
      crs:GreenHue="0"
      crs:GreenSaturation="0"
      crs:HasCrop="False"
      crs:HasSettings="True"
      crs:Highlights2012="0"
      crs:HueAdjustmentAqua="0"
      crs:HueAdjustmentBlue="0"
      crs:HueAdjustmentGreen="0"
      crs:HueAdjustmentMagenta="0"
      crs:HueAdjustmentOrange="0"
      crs:HueAdjustmentPurple="0"
      crs:HueAdjustmentRed="0"
      crs:HueAdjustmentYellow="0"
      crs:IncrementalTemperature="0"
      crs:IncrementalTint="0"
      crs:LensManualDistortionAmount="0"
      crs:LensProfileEnable="0"
      crs:LensProfileSetup="LensDefaults"
      crs:LuminanceAdjustmentAqua="0"
      crs:LuminanceAdjustmentBlue="0"
      crs:LuminanceAdjustmentGreen="0"
      crs:LuminanceAdjustmentMagenta="0"
      crs:LuminanceAdjustmentOrange="0"
      crs:LuminanceAdjustmentPurple="0"
      crs:LuminanceAdjustmentRed="0"
      crs:LuminanceAdjustmentYellow="0"
      crs:LuminanceSmoothing="0"
      crs:OverrideLookVignette="False"
      crs:ParametricDarks="0"
      crs:ParametricHighlightSplit="75"
      crs:ParametricHighlights="0"
      crs:ParametricLights="0"
      crs:ParametricMidtoneSplit="50"
      crs:ParametricShadowSplit="25"
      crs:ParametricShadows="0"
      crs:PerspectiveAspect="0"
      crs:PerspectiveHorizontal="0"
      crs:PerspectiveRotate="0.0"
      crs:PerspectiveScale="100"
      crs:PerspectiveUpright="0"
      crs:PerspectiveVertical="0"
      crs:PerspectiveX="0.00"
      crs:PerspectiveY="0.00"
      crs:PostCropVignetteAmount="0"
      crs:ProcessVersion="11.0"
      crs:RedHue="0"
      crs:RedSaturation="0"
      crs:Saturation="0"
      crs:SaturationAdjustmentAqua="0"
      crs:SaturationAdjustmentBlue="0"
      crs:SaturationAdjustmentGreen="0"
      crs:SaturationAdjustmentMagenta="0"
      crs:SaturationAdjustmentOrange="0"
      crs:SaturationAdjustmentPurple="0"
      crs:SaturationAdjustmentRed="0"
      crs:SaturationAdjustmentYellow="0"
      crs:ShadowTint="0"
      crs:Shadows2012="0"
      crs:SharpenDetail="25"
      crs:SharpenEdgeMasking="0"
      crs:SharpenRadius="+1.0"
      crs:Sharpness="0"
      crs:SplitToningBalance="0"
      crs:SplitToningHighlightHue="0"
      crs:SplitToningHighlightSaturation="0"
      crs:SplitToningShadowHue="0"
      crs:SplitToningShadowSaturation="0"
      crs:Texture="0"
      crs:ToneCurveName="Linear"
      crs:ToneCurveName2012="Linear"
      crs:ToneMapStrength="0"
      crs:UprightCenterMode="0"
      crs:UprightCenterNormX="0.5"
      crs:UprightCenterNormY="0.5"
      crs:UprightFocalLength35mm="35"
      crs:UprightFocalMode="0"
      crs:UprightFourSegmentsCount="0"
      crs:UprightPreview="False"
      crs:UprightTransformCount="6"
      crs:UprightVersion="151388160"
      crs:Version="12.1"
      crs:Vibrance="0"
      crs:VignetteAmount="0"
      crs:WhiteBalance="As Shot"
      crs:Whites2012="0"
      dc:format="image/jpeg"
      photoshop:ColorMode="3"
      photoshop:DateCreated="2020-01-18T17:28:22.056-08:00"
      photoshop:ICCProfile="Adobe RGB (1998)"
      photoshop:LegacyIPTCDigest="0E471C54765BB5CE2FE1EFB43F428AEE"
      xmp:CreateDate="2020-01-18T17:28:22"
      xmp:CreatorTool="NIKON D850 Ver.1.02     "
      xmp:MetadataDate="2020-02-08T08:46:48-07:00"
      xmp:ModifyDate="2020-02-08T08:46:48-07:00"
      xmp:Rating="4"
      xmpMM:DocumentID="xmp.did:c8692041-63f7-4d21-bec9-e970b76b434e"
      xmpMM:InstanceID="xmp.iid:f3d1ba30-5073-4364-b39e-b98fb1412d7b"
      xmpMM:OriginalDocumentID="FE70A58626BB309F945E62BC25DCC69F">
      <crs:Look
        crs:Name=""/>
      <crs:ToneCurve>
        <rdf:Seq>
          <rdf:li>0, 0</rdf:li>
          <rdf:li>255, 255</rdf:li>
        </rdf:Seq>
      </crs:ToneCurve>
      <crs:ToneCurveBlue>
        <rdf:Seq>
          <rdf:li>0, 0</rdf:li>
          <rdf:li>255, 255</rdf:li>
        </rdf:Seq>
      </crs:ToneCurveBlue>
      <crs:ToneCurveGreen>
        <rdf:Seq>
          <rdf:li>0, 0</rdf:li>
          <rdf:li>255, 255</rdf:li>
        </rdf:Seq>
      </crs:ToneCurveGreen>
      <crs:ToneCurvePV2012>
        <rdf:Seq>
          <rdf:li>0, 0</rdf:li>
          <rdf:li>255, 255</rdf:li>
        </rdf:Seq>
      </crs:ToneCurvePV2012>
      <crs:ToneCurvePV2012Blue>
        <rdf:Seq>
          <rdf:li>0, 0</rdf:li>
          <rdf:li>255, 255</rdf:li>
        </rdf:Seq>
      </crs:ToneCurvePV2012Blue>
      <crs:ToneCurvePV2012Green>
        <rdf:Seq>
          <rdf:li>0, 0</rdf:li>
          <rdf:li>255, 255</rdf:li>
        </rdf:Seq>
      </crs:ToneCurvePV2012Green>
      <crs:ToneCurvePV2012Red>
        <rdf:Seq>
          <rdf:li>0, 0</rdf:li>
          <rdf:li>255, 255</rdf:li>
        </rdf:Seq>
      </crs:ToneCurvePV2012Red>
      <crs:ToneCurveRed>
        <rdf:Seq>
          <rdf:li>0, 0</rdf:li>
          <rdf:li>255, 255</rdf:li>
        </rdf:Seq>
      </crs:ToneCurveRed>
      <photoshop:DocumentAncestors>
        <rdf:Bag>
          <rdf:li>adobe:docid:photoshop:4175d938-93f1-924b-9e9c-eb3dcbc947ca</rdf:li>
          <rdf:li>xmp.did:3ff520b3-d1f6-42f9-9906-354073c4a7e9</rdf:li>
        </rdf:Bag>
      </photoshop:DocumentAncestors>
      <xmpMM:DerivedFrom
        stRef:documentID="xmp.did:c8692041-63f7-4d21-bec9-e970b76b434e"
        stRef:instanceID="xmp.iid:c8692041-63f7-4d21-bec9-e970b76b434e"
        stRef:originalDocumentID="FE70A58626BB309F945E62BC25DCC69F"/>
      <xmpMM:History>
        <rdf:Seq>
          <rdf:li
            stEvt:action="saved"
            stEvt:changed="/metadata"
            stEvt:instanceID="xmp.iid:edab6c79-1aab-4ae1-993c-dd79fff9441c"
            stEvt:softwareAgent="Adobe Photoshop Camera Raw 12.1 (Macintosh)"
            stEvt:when="2020-01-19T07:38:10-08:00"/>
          <rdf:li
            stEvt:action="derived"
            stEvt:parameters="converted from image/x-nikon-nef to image/tiff"/>
          <rdf:li
            stEvt:action="saved"
            stEvt:changed="/"
            stEvt:instanceID="xmp.iid:54213404-50c4-4bc1-8b5e-ca608d491353"
            stEvt:softwareAgent="Adobe Photoshop Camera Raw 12.1 (Macintosh)"
            stEvt:when="2020-01-19T07:38:17-08:00"/>
          <rdf:li
            stEvt:action="saved"
            stEvt:changed="/"
            stEvt:instanceID="xmp.iid:91ee3fcb-a536-49e8-ad83-8c8c4f8014a0"
            stEvt:softwareAgent="Adobe Photoshop 21.0 (Macintosh)"
            stEvt:when="2020-01-19T07:39:52-08:00"/>
          <rdf:li
            stEvt:action="converted"
            stEvt:parameters="from image/tiff to image/jpeg"/>
          <rdf:li
            stEvt:action="derived"
            stEvt:parameters="converted from image/tiff to image/jpeg"/>
          <rdf:li
            stEvt:action="saved"
            stEvt:changed="/"
            stEvt:instanceID="xmp.iid:504517e5-4d2d-4ff9-ab4d-6cb7a4c1545c"
            stEvt:softwareAgent="Adobe Photoshop 21.0 (Macintosh)"
            stEvt:when="2020-01-19T07:39:52-08:00"/>
          <rdf:li
            stEvt:action="saved"
            stEvt:changed="/metadata"
            stEvt:instanceID="xmp.iid:a153dabd-59ba-4c6e-aba1-553767255325"
            stEvt:softwareAgent="Adobe Photoshop Camera Raw 12.1 (Macintosh)"
            stEvt:when="2020-01-19T07:44:21-08:00"/>
          <rdf:li
            stEvt:action="derived"
            stEvt:parameters="converted from image/jpeg to image/tiff"/>
          <rdf:li
            stEvt:action="saved"
            stEvt:changed="/"
            stEvt:instanceID="xmp.iid:07d6cc09-cb39-46e7-bc3d-0380e00b4d4b"
            stEvt:softwareAgent="Adobe Photoshop Camera Raw 12.1 (Macintosh)"
            stEvt:when="2020-01-19T07:44:24-08:00"/>
          <rdf:li
            stEvt:action="saved"
            stEvt:changed="/"
            stEvt:instanceID="xmp.iid:5e666aac-e58f-41c4-82eb-4b8ba1d9c23d"
            stEvt:softwareAgent="Adobe Photoshop 21.0 (Macintosh)"
            stEvt:when="2020-01-19T07:45:53-08:00"/>
          <rdf:li
            stEvt:action="converted"
            stEvt:parameters="from image/tiff to image/jpeg"/>
          <rdf:li
            stEvt:action="derived"
            stEvt:parameters="converted from image/tiff to image/jpeg"/>
          <rdf:li
            stEvt:action="saved"
            stEvt:changed="/"
            stEvt:instanceID="xmp.iid:817bc10c-57a5-4064-bb95-536749889727"
            stEvt:softwareAgent="Adobe Photoshop 21.0 (Macintosh)"
            stEvt:when="2020-01-19T07:45:53-08:00"/>
          <rdf:li
            stEvt:action="saved"
            stEvt:changed="/"
            stEvt:instanceID="xmp.iid:0e0de60d-9dd4-420f-bf1e-056c4de9389b"
            stEvt:softwareAgent="Adobe Photoshop 21.0 (Macintosh)"
            stEvt:when="2020-01-19T07:52:27-08:00"/>
          <rdf:li
            stEvt:action="saved"
            stEvt:changed="/metadata"
            stEvt:instanceID="xmp.iid:3bbbbb50-2b69-412a-8da7-ebe4b7b946ba"
            stEvt:softwareAgent="Adobe Photoshop Camera Raw 12.1 (Macintosh)"
            stEvt:when="2020-01-25T06:30:49-08:00"/>
          <rdf:li
            stEvt:action="derived"
            stEvt:parameters="converted from image/jpeg to image/tiff"/>
          <rdf:li
            stEvt:action="saved"
            stEvt:changed="/"
            stEvt:instanceID="xmp.iid:3ff520b3-d1f6-42f9-9906-354073c4a7e9"
            stEvt:softwareAgent="Adobe Photoshop Camera Raw 12.1 (Macintosh)"
            stEvt:when="2020-01-25T06:31-08:00"/>
          <rdf:li
            stEvt:action="saved"
            stEvt:changed="/"
            stEvt:instanceID="xmp.iid:dea5b69c-6c2a-4587-90e0-360b5bd881bd"
            stEvt:softwareAgent="Adobe Photoshop 21.0 (Macintosh)"
            stEvt:when="2020-01-25T06:32:20-08:00"/>
          <rdf:li
            stEvt:action="converted"
            stEvt:parameters="from image/tiff to image/jpeg"/>
          <rdf:li
            stEvt:action="derived"
            stEvt:parameters="converted from image/tiff to image/jpeg"/>
          <rdf:li
            stEvt:action="saved"
            stEvt:changed="/"
            stEvt:instanceID="xmp.iid:db2154f0-29a0-4501-946a-67152d71dd28"
            stEvt:softwareAgent="Adobe Photoshop 21.0 (Macintosh)"
            stEvt:when="2020-01-25T06:32:20-08:00"/>
          <rdf:li
            stEvt:action="saved"
            stEvt:changed="/metadata"
            stEvt:instanceID="xmp.iid:7e2dbb6a-7ecf-4717-a6ca-540cdc80f483"
            stEvt:softwareAgent="Adobe Photoshop Camera Raw 12.1 (Macintosh)"
            stEvt:when="2020-01-25T08:38:46-08:00"/>
          <rdf:li
            stEvt:action="derived"
            stEvt:parameters="converted from image/jpeg to image/tiff"/>
          <rdf:li
            stEvt:action="saved"
            stEvt:changed="/"
            stEvt:instanceID="xmp.iid:dc4f3a33-b497-474a-86ef-7a46e93470b5"
            stEvt:softwareAgent="Adobe Photoshop Camera Raw 12.1 (Macintosh)"
            stEvt:when="2020-01-25T08:38:47-08:00"/>
          <rdf:li
            stEvt:action="derived"
            stEvt:parameters="converted from image/tiff to image/jpeg"/>
          <rdf:li
            stEvt:action="saved"
            stEvt:changed="/"
            stEvt:instanceID="xmp.iid:fd2ef984-93d1-468d-993a-f19f5630680a"
            stEvt:softwareAgent="Adobe Photoshop 21.0 (Macintosh)"
            stEvt:when="2020-01-25T08:38:59-08:00"/>
          <rdf:li
            stEvt:action="saved"
            stEvt:changed="/metadata"
            stEvt:instanceID="xmp.iid:6858410a-315f-42d5-861d-2fa836172dac"
            stEvt:softwareAgent="Adobe Photoshop Camera Raw 12.1 (Macintosh)"
            stEvt:when="2020-01-27T23:29:57-08:00"/>
          <rdf:li
            stEvt:action="derived"
            stEvt:parameters="converted from image/jpeg to image/tiff"/>
          <rdf:li
            stEvt:action="saved"
            stEvt:changed="/"
            stEvt:instanceID="xmp.iid:fac57150-ea09-4a76-a2c3-49fe413ddbc1"
            stEvt:softwareAgent="Adobe Photoshop Camera Raw 12.1 (Macintosh)"
            stEvt:when="2020-01-27T23:30:05-08:00"/>
          <rdf:li
            stEvt:action="saved"
            stEvt:changed="/"
            stEvt:instanceID="xmp.iid:1be1ab9f-f595-4c62-b814-a213e55047d3"
            stEvt:softwareAgent="Adobe Photoshop 21.0 (Macintosh)"
            stEvt:when="2020-01-27T23:30:19-08:00"/>
          <rdf:li
            stEvt:action="converted"
            stEvt:parameters="from image/tiff to image/jpeg"/>
          <rdf:li
            stEvt:action="derived"
            stEvt:parameters="converted from image/tiff to image/jpeg"/>
          <rdf:li
            stEvt:action="saved"
            stEvt:changed="/"
            stEvt:instanceID="xmp.iid:e1caa918-cfbe-476c-ae4f-088620b9c999"
            stEvt:softwareAgent="Adobe Photoshop 21.0 (Macintosh)"
            stEvt:when="2020-01-27T23:30:19-08:00"/>
          <rdf:li
            stEvt:action="saved"
            stEvt:changed="/metadata"
            stEvt:instanceID="xmp.iid:01bd7cf8-e6a1-4b63-bce6-fb42e01d0951"
            stEvt:softwareAgent="Adobe Photoshop Camera Raw 12.1 (Macintosh)"
            stEvt:when="2020-02-08T08:45:03-07:00"/>
          <rdf:li
            stEvt:action="saved"
            stEvt:changed="/metadata"
            stEvt:instanceID="xmp.iid:e50abce5-1f36-4d9f-bbba-241dc6a20e07"
            stEvt:softwareAgent="Adobe Photoshop Camera Raw 12.1 (Macintosh)"
            stEvt:when="2020-02-08T08:45:42-07:00"/>
          <rdf:li
            stEvt:action="derived"
            stEvt:parameters="converted from image/jpeg to image/tiff"/>
          <rdf:li
            stEvt:action="saved"
            stEvt:changed="/"
            stEvt:instanceID="xmp.iid:5206e00c-b360-485d-8869-459d85ae3ce2"
            stEvt:softwareAgent="Adobe Photoshop Camera Raw 12.1 (Macintosh)"
            stEvt:when="2020-02-08T08:45:42-07:00"/>
          <rdf:li
            stEvt:action="derived"
            stEvt:parameters="converted from image/tiff to image/jpeg"/>
          <rdf:li
            stEvt:action="saved"
            stEvt:changed="/"
            stEvt:instanceID="xmp.iid:110342a5-d3aa-4257-914e-418b9629c650"
            stEvt:softwareAgent="Adobe Photoshop 21.0 (Macintosh)"
            stEvt:when="2020-02-08T08:46-07:00"/>
          <rdf:li
            stEvt:action="saved"
            stEvt:changed="/metadata"
            stEvt:instanceID="xmp.iid:7f75f01b-267e-4630-a1d5-b1afb1a5bda9"
            stEvt:softwareAgent="Adobe Photoshop Camera Raw 12.1 (Macintosh)"
            stEvt:when="2020-02-08T08:46:18-07:00"/>
          <rdf:li
            stEvt:action="derived"
            stEvt:parameters="converted from image/jpeg to image/tiff"/>
          <rdf:li
            stEvt:action="saved"
            stEvt:changed="/"
            stEvt:instanceID="xmp.iid:c8692041-63f7-4d21-bec9-e970b76b434e"
            stEvt:softwareAgent="Adobe Photoshop Camera Raw 12.1 (Macintosh)"
            stEvt:when="2020-02-08T08:46:19-07:00"/>
          <rdf:li
            stEvt:action="derived"
            stEvt:parameters="converted from image/tiff to image/jpeg"/>
          <rdf:li
            stEvt:action="saved"
            stEvt:changed="/"
            stEvt:instanceID="xmp.iid:f3d1ba30-5073-4364-b39e-b98fb1412d7b"
            stEvt:softwareAgent="Adobe Photoshop 21.0 (Macintosh)"
            stEvt:when="2020-02-08T08:46:48-07:00"/>
        </rdf:Seq>
      </xmpMM:History>
    </rdf:Description>
  </rdf:RDF>
</x:xmpmeta>
<?xpacket end="w"?>